/* XPM */
static char * code_xpm[] = {
"48 48 49 2",
".. c None",
"+. c None",
"@. c None",
"#. c None",
"$. c None",
"%. c None",
"&. c None",
"*. c #02350f",
"=. c #023510",
"-. c None",
";. c #09451b",
":. c #196934",
",. c #023410",
"<. c #03340f",
">. c #155b2c",
"a. c #2a7738",
"b. c #3a9746",
"c. c #0c4c20",
"d. c #4ab954",
"e. c #4fc459",
"f. c #1c7039",
"g. c #236833",
"h. c #31843e",
"i. c #45a84f",
"j. c #358b41",
"k. c #d5ebb3",
"l. c #5d8f58",
"m. c #8eb37c",
"n. c #437745",
"o. c #76d574",
"p. c #93e289",
"q. c #69cb6b",
"r. c #33993f",
"s. c #5aca61",
"t. c #8bdb82",
"u. c #4b944d",
"v. c #a7c590",
"w. c #83d87c",
"x. c #bfd8a1",
"y. c #62995d",
"z. c #6ab569",
"A. c #76a36b",
"B. c #c0dea3",
"C. c #94b981",
"D. c #36a043",
"E. c #002d09",
"F. c #e8fbc2",
"G. c #205529",
"H. c #84ab77",
"................+.............................................................+.................",
"..................@.#.$.$.$.$.$.$.$.$.$.$.$.$.$.$.$.$.$.$.$.$.$.$.$.$.$.$.#.+...................",
"..............%.&.*.=.=.=.=.=.=.=.=.=.=.=.=.=.=.=.=.=.=.=.=.=.=.=.=.=.=.=.=.*.&.%...-...........",
"............#.*.=.=.=.=.=.=.=.=.=.=.=.=.=.=.=.=.=.=.=.=.=.=.=.=.=.=.=.=.=.=.=.=.*.#.............",
"..........+.=.=.=.=.=.=.=.=.=.=.=.=.=.=.=.=.;.:.:.;.=.=.=.=.=.=.=.=.=.=.=.=.=.=.=.=.#...........",
"......-...,.=.=.=.=.=.=.=.=.=.=.=.=.=.=.;.:.:.:.:.:.:.;.=.=.=.=.=.=.=.=.=.=.=.=.=.=.,...-.......",
"....@...#.=.=.=.=.=.=.=.=.=.=.=.=.=.;.:.:.:.:.:.:.:.:.:.:.;.=.=.=.=.=.=.=.=.=.=.=.=.=.$...@.....",
"....+...<.=.=.=.=.=.=.=.=.=.=.=.;.>.:.:.:.:.:.:.:.:.:.:.:.:.>.;.=.=.=.=.=.=.=.=.=.=.=.<...+.....",
"........*.=.=.=.=.=.=.=.=.=.;.>.:.:.:.:.:.:.:.:.:.:.:.:.:.:.:.:.>.;.=.=.=.=.=.=.=.=.=.*.........",
"........*.=.=.=.=.=.=.=.=.>.:.:.:.:.:.:.:.:.>.>.>.>.:.:.:.:.:.:.:.:.>.=.=.=.=.=.=.=.=.*.........",
"........*.=.=.=.=.=.=.>.:.:.:.:.:.:.:.:.>.:.a.b.b.a.:.>.:.:.:.:.:.:.:.:.>.=.=.=.=.=.=.*.........",
"........*.=.=.=.=.c.:.:.:.:.:.:.:.:.>.:.a.b.d.e.e.d.b.a.:.>.:.:.:.:.:.:.:.:.c.=.=.=.=.*.........",
"........*.=.=.=.=.>.f.:.:.:.:.>.>.g.h.i.d.e.e.e.e.e.e.d.i.h.g.>.>.:.:.:.:.f.>.=.=.=.=.*.........",
"........*.=.=.=.=.;.:.:.:.:.>.g.j.i.d.e.e.e.e.e.e.e.e.e.e.d.i.j.g.>.:.:.:.:.;.=.=.=.=.*.........",
"........*.=.=.=.=.=.:.:.:.:.b.d.e.e.e.e.e.e.e.e.e.e.e.e.e.e.e.e.d.b.:.:.:.:.=.=.=.=.=.*.........",
"........*.=.=.=.=.=.:.:.:.g.d.e.e.e.e.e.e.e.e.e.e.e.e.e.e.e.e.d.h.b.a.>.:.:.=.=.=.=.=.*.........",
"........*.=.=.=.=.=.>.f.:.:.i.e.e.e.e.e.e.e.e.e.e.e.e.e.e.e.e.j.k.l.>.:.f.>.=.=.=.=.=.*.........",
"........*.=.=.=.=.=.;.:.:.>.b.e.e.e.e.e.e.e.e.e.e.e.e.e.e.e.e.i.m.n.>.:.:.;.=.=.=.=.=.*.........",
"........*.=.=.=.=.=.=.:.:.>.h.e.e.e.e.e.e.e.e.e.e.e.e.e.e.e.o.p.i.a.>.:.:.=.=.=.=.=.=.*.........",
"........*.=.=.=.=.=.=.:.:.>.a.d.e.e.e.e.e.e.e.e.e.e.e.e.e.q.p.o.e.a.>.:.:.=.=.=.=.=.=.*.........",
"........*.=.=.=.=.=.=.>.:.:.g.d.e.e.e.d.r.d.e.e.e.e.e.e.s.p.t.e.i.g.:.:.>.=.=.=.=.=.=.*.........",
"........*.=.=.=.=.=.=.>.f.:.:.i.e.e.e.u.v.u.e.e.e.e.e.e.w.p.q.e.i.:.:.f.>.=.=.=.=.=.=.*.........",
"........*.=.=.=.=.=.=.;.:.:.>.b.e.e.e.u.x.y.e.e.e.e.e.o.p.o.e.e.b.>.:.:.;.=.=.=.=.=.=.*.........",
"........*.=.=.=.=.=.=.=.:.:.>.h.e.e.o.t.u.q.p.s.e.e.q.p.w.e.e.e.h.>.:.:.=.=.=.=.=.=.=.*.........",
"........*.=.=.=.=.=.=.=.:.:.>.a.d.o.p.w.e.q.p.t.s.s.p.t.e.e.e.d.a.>.:.:.=.=.=.=.=.=.=.*.........",
"........*.=.=.=.=.=.=.=.>.f.:.:.d.p.t.e.e.e.q.p.z.u.t.q.e.e.e.i.g.:.f.>.=.=.=.=.=.=.=.*.........",
"........*.=.=.=.=.=.=.=.c.f.:.g.w.p.s.e.e.e.e.d.A.B.u.e.e.e.e.i.:.:.f.c.=.=.=.=.=.=.=.*.........",
"........*.=.=.=.=.=.=.=.;.:.:.z.p.q.e.e.e.e.e.d.u.C.b.e.e.e.e.b.>.:.:.;.=.=.=.=.=.=.=.*.........",
"........*.=.=.=.=.=.=.=.=.>.g.q.z.d.e.e.e.e.e.e.d.D.e.e.e.e.d.h.>.:.:.=.=.=.=.=.=.=.=.*.........",
"........*.=.=.=.=.=.=.=.E.n.F.n.:.d.e.e.e.e.e.e.e.e.e.e.e.e.d.a.>.:.>.=.=.=.=.=.=.=.=.*.........",
"........*.=.=.=.=.=.=.=.E.G.H.g.:.i.e.e.e.e.e.e.e.e.e.e.e.e.i.g.:.f.>.=.=.=.=.=.=.=.=.*.........",
"........*.=.=.=.=.=.=.=.=.;.>.:.:.b.e.e.e.e.e.e.e.e.e.e.e.e.b.:.:.:.;.=.=.=.=.=.=.=.=.*.........",
"........*.=.=.=.=.=.=.=.=.=.f.:.>.j.e.e.e.e.e.e.e.e.e.e.e.e.j.>.:.:.=.=.=.=.=.=.=.=.=.*.........",
"........*.=.=.=.=.=.=.=.=.=.:.:.:.g.b.e.e.e.e.e.e.e.e.e.e.b.g.:.:.:.=.=.=.=.=.=.=.=.=.*.........",
"........*.=.=.=.=.=.=.=.=.=.>.:.:.>.:.b.d.e.e.e.e.e.e.d.b.:.>.:.:.>.=.=.=.=.=.=.=.=.=.*.........",
"........*.=.=.=.=.=.=.=.=.=.;.f.:.:.:.:.j.d.e.e.e.e.d.j.:.:.:.:.f.;.=.=.=.=.=.=.=.=.=.*.........",
"........*.=.=.=.=.=.=.=.=.=.=.c.:.:.:.:.>.j.d.e.e.d.j.>.:.:.:.:.c.=.=.=.=.=.=.=.=.=.=.*.........",
"........*.=.=.=.=.=.=.=.=.=.=.=.;.:.:.:.:.>.h.d.d.h.>.:.:.:.:.;.=.=.=.=.=.=.=.=.=.=.=.*.........",
"........*.=.=.=.=.=.=.=.=.=.=.=.=.;.:.:.:.:.>.a.a.>.:.:.:.:.;.=.=.=.=.=.=.=.=.=.=.=.=.*.........",
"........*.=.=.=.=.=.=.=.=.=.=.=.=.=.;.:.:.:.:.>.>.:.:.:.:.;.=.=.=.=.=.=.=.=.=.=.=.=.=.*.........",
"....+...<.=.=.=.=.=.=.=.=.=.=.=.=.=.=.=.:.:.:.:.:.:.:.:.=.=.=.=.=.=.=.=.=.=.=.=.=.=.=.<...+.....",
"....@...$.=.=.=.=.=.=.=.=.=.=.=.=.=.=.=.=.:.:.:.:.:.:.=.=.=.=.=.=.=.=.=.=.=.=.=.=.=.=.$...@.....",
"......-...,.=.=.=.=.=.=.=.=.=.=.=.=.=.=.=.=.>.:.:.>.=.=.=.=.=.=.=.=.=.=.=.=.=.=.=.=.,...-.......",
"..........+.=.=.=.=.=.=.=.=.=.=.=.=.=.=.=.=.=.>.>.=.=.=.=.=.=.=.=.=.=.=.=.=.=.=.=.=.#...........",
"............#.*.=.=.=.=.=.=.=.=.=.=.=.=.=.=.=.=.=.=.=.=.=.=.=.=.=.=.=.=.=.=.=.=.*.#.............",
"..............%.&.*.=.=.=.=.=.=.=.=.=.=.=.=.=.=.=.=.=.=.=.=.=.=.=.=.=.=.=.=.*.&.%...-...........",
"..................+.#.$.$.$.$.$.$.$.$.$.$.$.$.$.$.$.$.$.$.$.$.$.$.$.$.$.$.#.+...................",
"................+.............................................................+................."
};
